src/images/single-assets/OVN.svg

<svg width="80" height="80" viewBox="0 0 80 80" fill="none" xmlns="http://www.w3.org/2000/svg">
    <rect width="80" height="80" rx="40" fill="url(#paint0_linear_10320_78637)"/>
    <path fill-rule="evenodd" clip-rule="evenodd"
          d="M56.678 23.322H26.5763V16H56.678C60.7212 16 63.9991 19.2773 64 23.3203H56.6797V23.322H56.678ZM56.6797 25.7627H56.678V56.678V56.6797H56.6797V64C60.7227 63.9991 64 60.7212 64 56.678V26.5745H56.6797V25.7627ZM54.2373 56.678V56.6797H53.4254V64H23.322C19.2782 64 16 60.7218 16 56.678H23.322H54.2373ZM23.322 16V23.322V53.4237H16V23.322C16 19.2782 19.2782 16 23.322 16Z"
          fill="url(#paint1_linear_10320_78637)"/>
    <path fill-rule="evenodd" clip-rule="evenodd"
          d="M38.6686 30.6445C38.282 30.6445 37.9686 30.9579 37.9686 31.3445V37.1523L32.1609 37.1523C31.7743 37.1523 31.4609 37.4657 31.4609 37.8523L31.4609 41.3337C31.4609 41.7203 31.7743 42.0337 32.1609 42.0337H37.9686V47.8428C37.9686 48.2294 38.282 48.5428 38.6686 48.5428H42.15C42.5366 48.5428 42.85 48.2294 42.85 47.8428V42.0337H48.6592C49.0458 42.0337 49.3592 41.7203 49.3592 41.3337V37.8523C49.3592 37.4657 49.0458 37.1523 48.6592 37.1523L42.85 37.1523V31.3445C42.85 30.9579 42.5366 30.6445 42.15 30.6445H38.6686Z"
          fill="url(#paint2_linear_10320_78637)"/>
    <defs>
        <linearGradient id="paint0_linear_10320_78637" x1="0" y1="0" x2="85.7257" y2="52.3367"
                        gradientUnits="userSpaceOnUse">
            <stop offset="0.162848" stop-color="#062C76"/>
            <stop offset="1" stop-color="#15141D"/>
        </linearGradient>
        <linearGradient id="paint1_linear_10320_78637" x1="16" y1="16" x2="65.0299" y2="17.0761"
                        gradientUnits="userSpaceOnUse">
            <stop stop-color="#3EB1FE"/>
            <stop offset="1" stop-color="#0678C4" stop-opacity="0.9917"/>
        </linearGradient>
        <linearGradient id="paint2_linear_10320_78637" x1="31.4609" y1="30.6445" x2="49.7433" y2="31.0458"
                        gradientUnits="userSpaceOnUse">
            <stop stop-color="#3EB1FE"/>
            <stop offset="1" stop-color="#0678C4" stop-opacity="0.9917"/>
        </linearGradient>
    </defs>
</svg>

<svg xmlns="http://www.w3.org/2000/svg" width="80" height="80" fill="none"><rect width="80" height="80" fill="url(#a)" rx="40"/><path fill="url(#b)" fill-rule="evenodd" d="M56.678 23.322H26.576V16h30.102A7.32 7.32 0 0 1 64 23.32h-7.32v.002zm.002 2.44h-.002V56.68h.002V64A7.32 7.32 0 0 0 64 56.678V26.575h-7.32zm-2.443 30.916v.002h-.812V64H23.322A7.32 7.32 0 0 1 16 56.678h38.237M23.322 16v37.424H16V23.322A7.32 7.32 0 0 1 23.322 16" clip-rule="evenodd"/><path fill="url(#c)" fill-rule="evenodd" d="M38.669 30.645a.7.7 0 0 0-.7.7v5.807H32.16a.7.7 0 0 0-.7.7v3.482a.7.7 0 0 0 .7.7h5.808v5.809a.7.7 0 0 0 .7.7h3.481a.7.7 0 0 0 .7-.7v-5.81h5.81a.7.7 0 0 0 .7-.7v-3.48a.7.7 0 0 0-.7-.7h-5.81v-5.808a.7.7 0 0 0-.7-.7z" clip-rule="evenodd"/><defs><linearGradient id="a" x1="0" x2="85.726" y1="0" y2="52.337" gradientUnits="userSpaceOnUse"><stop offset=".163" stop-color="#062C76"/><stop offset="1" stop-color="#15141D"/></linearGradient><linearGradient id="b" x1="16" x2="65.03" y1="16" y2="17.076" gradientUnits="userSpaceOnUse"><stop stop-color="#3EB1FE"/><stop offset="1" stop-color="#0678C4" stop-opacity=".992"/></linearGradient><linearGradient id="c" x1="31.461" x2="49.743" y1="30.645" y2="31.046" gradientUnits="userSpaceOnUse"><stop stop-color="#3EB1FE"/><stop offset="1" stop-color="#0678C4" stop-opacity=".992"/></linearGradient></defs></svg>
